img/icon-open.svg

<svg fill="none" height="32" viewBox="0 0 32 32" width="32" xmlns="http://www.w3.org/2000/svg"><path clip-rule="evenodd" d="m17.4142 21.4142c-.781.7811-2.0474.7811-2.8284 0l-8.00001-8c-.78105-.781-.78105-2.0474 0-2.8284.78104-.78106 2.04737-.78106 2.82842 0l6.58579 6.5858 6.5858-6.5858c.781-.78106 2.0474-.78106 2.8284 0 .7811.781.7811 2.0474 0 2.8284z" fill="#fff" fill-rule="evenodd"/></svg>

<svg width="32" height="32" viewBox="0 0 32 32" fill="none" xmlns="http://www.w3.org/2000/svg">
<path fill-rule="evenodd" clip-rule="evenodd" d="M17.4142 21.4142C16.6332 22.1953 15.3668 22.1953 14.5858 21.4142L6.58579 13.4142C5.80474 12.6332 5.80474 11.3668 6.58579 10.5858C7.36683 9.80474 8.63316 9.80474 9.41421 10.5858L16 17.1716L22.5858 10.5858C23.3668 9.80474 24.6332 9.80474 25.4142 10.5858C26.1953 11.3668 26.1953 12.6332 25.4142 13.4142L17.4142 21.4142Z" fill="white"/>
</svg>
